!!!COM: Haydn, Franz Joseph
!!!OTL: String Quartet in C major
!!!OPS: Opus 1
!!!ONM: No. 6
!!!OMD: Finale: Presto
!!!OMV: 5
!!!SCT: H III:6
!!!SCA: Thematisch-bibliographisches Werkevererzeichnis (A. van Hoboken)
!!!YOR: Bremner Edition, 1772
!!!ENC: Frances Bennion
!!!CDT: 1732/3/31/-1809/5/31/
!!!CNT: Oesterreich
!!!YEC: Copyright (c) 1994, 2000 Center for Computer Assisted Research in the Humanities
!!!YEM: Rights to all derivative editions reserved.
!!!YEM: Refer to licensing agreement for further details.
!!!YEN: United States of America
**kern	**kern	**kern	**kern
*k[]	*k[]	*k[]	*k[]
*C:	*C:	*C:	*C:
*clefF4	*clefC3	*clefF	*clefF
*M2/4	*M2/4	*M2/4	*M2/4
4.r	4.r	4.r	4.r
8r	8r	8r	8c
=1	=1	=1	=1
4C	4E	4c	8e
.	.	.	8g
4r	4r	4r	8cc
.	.	.	8ee
=2	=2	=2	=2
8c	8cc	8ee	4.gg
8c	8cc	8ee	.
8B	8dd	8ff	.
8B	8g	8dd	24aa
.	.	.	24gg
.	.	.	24ff
=3	=3	=3	=3
4c	4g	4cc	8ee
.	.	.	8g
4r	4r	4r	8cc
.	.	.	8ee
=4	=4	=4	=4
8c	8cc	8ee	4.gg
8c	8cc	8ee	.
8B	8dd	8ff	.
8B	8g	8dd	24aa
.	.	.	24gg
.	.	.	24ff
=5	=5	=5	=5
4c	4g	4cc	8ee
.	.	.	8ccc
8r	8r	8r	8ccc
8E	8g	[8cc	8ccc
=6	=6	=6	=6
8F	8a	8cc]	8.dd
8E	8g	4cc	.
.	.	.	16ee
8D	8f	.	8ff
8G	8f	8b	16ee
.	.	.	16dd
=7	=7	=7	=7
4C	4e	4cc	8ee
.	.	.	8ccc
8r	8r	8r	8ccc
8E	8g	[8cc	8ccc
=8	=8	=8	=8
8F	8a	8cc]	8.dd
8E	8g	4cc	.
.	.	.	16ee
8D	8f	.	8ff
8G	8f	8b	16ee
.	.	.	16dd
=9	=9	=9	=9
8C	8e	8cc	8cc
8C	8c	8c	8c
8E	8e	8e	8e
8G	8g	8g	8g
=10	=10	=10	=10
4c	4cc	4cc	4cc
4r	4r	4r	8r
.	.	.	8ee
=11	=11	=11	=11
2r	8c	16d	8f#
.	.	16d	.
.	8B	16d	8g
.	.	16d	.
.	8F#	16d	8a
.	.	16d	.
.	8G	16d	8b
.	.	16d	.
=12	=12	=12	=12
8D	8A	8f#	8cc
8G	8G	8g	8b
4r	4r	4r	8r
.	.	.	8dd
=13	=13	=13	=13
2r	8c	16d	8f#
.	.	16d	.
.	8B	16d	8g
.	.	16d	.
.	8F#	16d	8a
.	.	16d	.
.	8G	16d	8b
.	.	16d	.
=14	=14	=14	=14
8D	8A	8f#	8cc
8G	8G	8g	8b
8r	4r	4r	8r
8B	.	.	8dd
=15	=15	=15	=15
8c	8c	8g	2ee
8c	8c	8g	.
8c	8c	8g	.
8c	8c	8g	.
=16	=16	=16	=16
8A	8d	8cc	2ff#
8A	8d	8cc	.
8A	8d	8cc	.
8A	8d	8cc	.
=17	=17	=17	=17
8B	8d	8dd	2gg
8B	8d	8dd	.
8B	8d	8dd	.
8B	8d	8dd	.
=18	=18	=18	=18
8F#	8d	8dd	4.aa
8F#	8d	8dd	.
8F#	8d	8dd	.
8F#	8d	8dd	16bb
.	.	.	16ccc
=19	=19	=19	=19
8G	8d	8dd	4bb
8G	8d	8dd	.
8BB	8B	8g	4ddd
8BB	8B	8g	.
=20	=20	=20	=20
4C	4G	4e	8ccc
.	.	.	16bb
.	.	.	16aa
4r	4r	4r	8gg
.	.	.	16ff#
.	.	.	16ee
=21	=21	=21	=21
8r	8r	8r	4dd
8BB	8B	4g	.
8C	8c	.	4aa
8D	8d	8f#	.
=22	=22	=22	=22
4GG	4G	4g	4gg
4r	4r	8gg	8bb
.	.	16gg	16bb
.	.	16bb	16ddd
=23	=23	=23	=23
2r	2r	4gg	4bb
.	.	8b	8gg
.	.	16b	16gg
.	.	16dd	16bb
=24	=24	=24	=24
4r	4r	4b	4gg
8G	8g	8g	8g
16G	16g	16g	16g
16A	16a	16a	16a
=25	=25	=25	=25
8B	8b	8b	8b
8e	8ee	8ee	8ee
8c	8cc	8cc	8cc
8d	8dd	8dd	8dd
=26	=26	=26	=26
4G	4g	4g	4g
8r	8r	8r	8r
8r	8r	8g	8r
=27	=27	=27	=27
8G	4.ee	4.gg	2r
8G	.	.	.
8G	.	.	.
8G	24ff	24aa	.
.	24ee	24gg	.
.	24dd	24ff	.
=28	=28	=28	=28
8G	4cc	4ee	8r
8G	.	.	8ccc
8G	4r	8r	4eee
8G	.	8g	.
=29	=29	=29	=29
8G	4.dd	4.ff	2r
8G	.	.	.
8G	.	.	.
8G	24ee	24gg	.
.	24dd	24ff	.
.	24cc	24ee	.
=30	=30	=30	=30
8G	4b	4dd	8r
8G	.	.	8bb
8G	8r	8r	8ddd
8G	8g	8g	8g
=31	=31	=31	=31
8c	8cc	8cc	8cc
8G	8g	8g	8g
8e	8ee	8ee	8ee
8B	8b	8b	8b
=32	=32	=32	=32
8c	8cc	8cc	8cc
8G	8g	8g	8g
8e	8ee	8ee	8ee
8B	8b	8b	8b
=33	=33	=33	=33
8c	8cc	8cc	8cc
8G	8g	8g	8g
8E	8e	8e	8e
8C	8c	8c	8c
=34	=34	=34	=34
4G	4g	4g	4g
4r	8r	4r	4r
.	8G	.	.
=35	=35	=35	=35
4C	8c	4e-	2r
.	8e-	.	.
8r	8g	8r	.
8F#	8cc	8e-	.
=36	=36	=36	=36
4G	4cc	4e-	4.r
4GG	8b	8d	.
.	8r	8c	8G
=37	=37	=37	=37
4.r	4.r	8e-	8c
.	.	8g	8e-
.	.	8cc	8g
8F#	8a	8ee-	8cc
=38	=38	=38	=38
4G	4g	4ee-	4cc
4GG	4G	8dd	8b
.	.	8c	8e-
=39	=39	=39	=39
4.r	2r	8e-	8g
.	.	8g	8cc
.	.	8cc	8ee-
8c	.	8ee-	8gg
=40	=40	=40	=40
4F	8r	8ee	8gg
.	8c	8ff	8aa-
4B-	8d	8r	8r
.	8f	8dd	8ff
=41	=41	=41	=41
4E-	8r	8dd	8ff
.	8B-	8ee-	8gg
4A-	8c	8r	8r
.	8e-	8cc	8ee-
=42	=42	=42	=42
4D	8r	8cc	8ee-
.	8A	8dd	8ff
4G	8B	8r	8r
.	8d	8b	8dd
=43	=43	=43	=43
4C	8r	8b	8dd
.	8G	8cc	8ee-
4AA-	8c	8r	8r
.	8A-	8c	8f#
=44	=44	=44	=44
4GG	4G	4B	8g
.	.	.	8f#
8r	8r	8r	8g
8AA-	8A-	8c	8f#
=45	=45	=45	=45
4GG	4G	4B	4g
4r	4r	4r	8r
.	.	.	8c
=46	=46	=46	=46
4C	4E	4c	8e
.	.	.	8g
4r	4r	4r	8cc
.	.	.	8ee
=47	=47	=47	=47
8c	8cc	8ee	4.gg
8c	8cc	8ee	.
8B	8dd	8ff	.
8B	8g	8dd	24aa
.	.	.	24gg
.	.	.	24ff
=48	=48	=48	=48
4c	4g	4cc	8ee
.	.	.	8g
4r	4r	4r	8cc
.	.	.	8ee
=49	=49	=49	=49
8c	8cc	8ee	4.gg
8c	8cc	8ee	.
8B	8dd	8ff	.
8B	8g	8dd	24aa
.	.	.	24gg
.	.	.	24ff
=50	=50	=50	=50
4c	4g	4cc	8ee
.	.	.	8ccc
8r	8r	8r	8ccc
8E	8g	[8cc	8ccc
=51	=51	=51	=51
8F	8a	8cc]	8.dd
8E	8g	4cc	.
.	.	.	16ee
8D	8f	.	8ff
8G	8f	8b	16ee
.	.	.	16dd
=52	=52	=52	=52
4C	4e	4cc	8ee
.	.	.	8ccc
8r	8r	8r	8ccc
8E	8g	[8cc	8ccc
=53	=53	=53	=53
8F	8a	8cc]	8.dd
8E	8g	4cc	.
.	.	.	16ee
8D	8f	.	8ff
8G	8f	8b	16ee
.	.	.	16dd
=54	=54	=54	=54
4C	4e	8.cc	8.ee
.	.	16dd	16ff
8r	8r	8ee	8gg
8c	8cc	16dd	16ff
.	.	16cc	16ee
=55	=55	=55	=55
4F	4f	8.ff	8.aa
.	.	16ee	16gg
4r	4r	16dd	16ff
.	.	16cc	16ee
.	.	16b	16dd
.	.	16a	16cc
=56	=56	=56	=56
8G	8g	8g	8b
8GG	8G	8g	8g
8BB	8B	8b	8b
8D	8d	8dd	8dd
=57	=57	=57	=57
4G	4g	4gg	4gg
4r	4r	4r	8r
.	.	.	8gg
=58	=58	=58	=58
2r	8f	16g	8b
.	.	16g	.
.	8e	16g	8cc
.	.	16g	.
.	8B	16g	8dd
.	.	16g	.
.	8c	16g	8ee
.	.	16g	.
=59	=59	=59	=59
8G	8d	8b	8ff
8c	8c	8cc	8ee
4r	4r	4r	8r
.	.	.	8gg
=60	=60	=60	=60
2r	8f	16g	8b
.	.	16g	.
.	8e	16g	8cc
.	.	16g	.
.	8B	16g	8dd
.	.	16g	.
.	8c	16g	8ee
.	.	16g	.
=61	=61	=61	=61
8G	8d	8b	8ff
8c	8c	8cc	8ee
4r	4r	4r	8r
.	.	.	8gg
=62	=62	=62	=62
8F	8f	8cc	2aa
8F	8f	8cc	.
8F	8f	8cc	.
8F	8f	8cc	.
=63	=63	=63	=63
8D	8d	8ff	2bb
8D	8d	8f	.
8D	8d	8f	.
8D	8d	8f	.
=64	=64	=64	=64
8E	8G	8g	4.ccc
8E	8G	8g	.
8E	8G	8g	.
8E	8G	8g	16ddd
.	.	.	16ccc
=65	=65	=65	=65
8BB	8G	8g	4ddd
8B	8G	8g	.
8B	8G	8g	4ff
8B	8G	8g	.
=66	=66	=66	=66
8c	8G	8g	4ee
8c	8G	8g	.
8E	8G	8cc	4gg
8E	8G	8cc	.
=67	=67	=67	=67
4F	4F	4a	8ff
.	.	.	16ee
.	.	.	16dd
4r	4r	4r	8cc
.	.	.	16b
.	.	.	16a
=68	=68	=68	=68
8r	8r	8r	4g
8E	8e	4cc	.
8F	8f	.	4dd
8G	8g	8b	.
=69	=69	=69	=69
4C	4c	4cc	4cc
4r	4r	8cc	8ee
.	.	16cc	16ee
.	.	16ee	16gg
=70	=70	=70	=70
2r	2r	4cc	4ee
.	.	8e	8cc
.	.	16e	16cc
.	.	16g	16ee
=71	=71	=71	=71
4r	4r	4e	4cc
8C	8c	8c	8c
16C	16c	16c	16c
16D	16d	16d	16d
=72	=72	=72	=72
8E	8e	8e	8e
8A	8a	8a	8a
8G	8g	8g	8g
8F#	8f#	8f#	8f#
=73	=73	=73	=73
4G	4g	4g	4g
4r	4r	8cc	8ee
.	.	16cc	16ee
.	.	16ee	16gg
=74	=74	=74	=74
2r	2r	4cc	4ee
.	.	8e	8cc
.	.	16e	16cc
.	.	16g	16ee
=75	=75	=75	=75
4r	4r	4e	4cc
8C	8c	8c	8c
16C	16c	16c	16c
16D	16d	16d	16d
=76	=76	=76	=76
8E	8e	8e	8e
8A	8a	8a	8a
8F	8f	8f	8f
8G	8g	8g	8g
=77	=77	=77	=77
4C	4c	4c	4c
4r	4r	4r	4r
==	==	==	==
*-	*-	*-	*-
!!!RWG1: This file contains only pitch and duration data.
!!!RWG2: Transposing instruments are not transposed.
!!!RWG3: Spines may have incompatible meters.
!!!RWG4: Durations of rests and tied notes may be interpreted.
!!!RWG: Key is interpreted using the Humdrum key tool.
!!!GTL: 10 Divertimentos
!!!AFT: stage1
!!!END: 1997/04/15
!!!KEY: 4124073787
!!!EMD: Converted from MuseData to Humdrum Dec 16, 2000, by Andreas Kornstaedt using muse2kern.
!!!EMD: Manual editing by Craig Sapp, Nov 2001
